X:2024
T:Burning of the Piper's Hut, The
R:March
C:Trad.
O:Scotland
M:4/4
L:1/8
Q:1/4=120
K:Am
E2|"Am"A>B c>d e2 e2|e>d e<g e2 dc|"G"B2 G2 d2 G2|B>c d<e d2 c>B|
"Am"A>B c>d e2 e2|e>d e<g e2 dc|"G"B2 G2 e2 d>c|"Am"B2 A2 A2:|
|:E2|"Am"e2 A2 g2 A2|e2 A2 g2 dc|"G"B2 G2 d2 G2|B>c d<e d2 c>B|
"Am"e2 A2 g2 A2|e2 A2 g2 dc|"G"B2 G2 e2 d>c|"Em"B2 "Am"A2 A2:|

